X: 07050
T: HARLOW'S HORNPIPE
C: Bob McQuillen 17 June 89
B: Bob's Note Book 7 #50
%R: hornpipe, reel
Z: 2020 John Chambers <jc:trillian.mit.edu>
M: C
L: 1/8
K: G
DE \
| G2GE DB,DE | GBde d2DE | GAGE DEGA | BGAG EDBA |
| G2GE DB,DE | GBde dBAB | GEDB, DEGA | B2G2 G2 :|
|: GB \
| d2de dBGA | BGAB G2GB | dBde gabg | agab g2ba |
| g2ga baga | bgag edBd | gage dBGA | B2G2 G2  :|
%%begintext align
%% Harlow Richardson runs
%% a neat little Deli-Lunchroom called "The Wide
%% World of Cheese" in Peterborough, N.H. He sells me
%% wonderful coffee in the morning, likes fiddle tunes,
%% and is an avid Sailor. So here is a real hornpipe,
%% just for you, Harlow. Don't fall overboard
%% trying it out. Happy Sailing!
%%endtext

%%sep 1 1 500

%%sep 1 1 500

